remix/Buildings/building-2-fill.svg

<svg viewBox="0 0 24 24" fill="currentColor" xmlns="http://www.w3.org/2000/svg"><path d="M12 19H14V6.00003L20.3939 8.74028C20.7616 8.89786 21 9.2594 21 9.65943V19H23V21H1V19H3V5.6499C3 5.25472 3.23273 4.89659 3.59386 4.73609L11.2969 1.31251C11.5493 1.20035 11.8448 1.314 11.9569 1.56634C11.9853 1.63027 12 1.69945 12 1.76941V19Z"/></svg>

<svg viewBox="0 0 24 24" xmlns="http://www.w3.org/2000/svg"><path fill="none" d="M0 0h24v24H0Z"/><path d="M12 19h2V6l6.39 2.74v-.001c.36.15.6.51.6.92v9.34h2v2h-22v-2h2V5.64v0c-.01-.4.23-.76.59-.92l7.7-3.43v0c.25-.12.54 0 .65.25 .02.06.04.13.04.2v17.23Z"/></svg>
